img/app-center-logo.svg

<?xml version="1.0" ?>
<svg xmlns:dc="http://purl.org/dc/elements/1.1/" xmlns:cc="http://creativecommons.org/ns#" xmlns:rdf="http://www.w3.org/1999/02/22-rdf-syntax-ns#" xmlns:svg="http://www.w3.org/2000/svg" xmlns="http://www.w3.org/2000/svg" xmlns:sodipodi="http://sodipodi.sourceforge.net/DTD/sodipodi-0.dtd" xmlns:inkscape="http://www.inkscape.org/namespaces/inkscape" alt="App Center" viewBox="0 0 120 60" sodipodi:docname="appcenterms-ar21.svg" inkscape:version="0.92.3 (2405546, 2018-03-11)">
	<metadata id="metadata14">
		<rdf:RDF>
			<cc:Work rdf:about="">
				<dc:format>image/svg+xml</dc:format>
				<dc:type rdf:resource="http://purl.org/dc/dcmitype/StillImage"/>
				<dc:title/>
			</cc:Work>
		</rdf:RDF>
	</metadata>
	<defs id="defs12"/>
	<sodipodi:namedview pagecolor="#ffffff" bordercolor="#666666" borderopacity="1" objecttolerance="10" gridtolerance="10" guidetolerance="10" inkscape:pageopacity="0" inkscape:pageshadow="2" inkscape:window-width="1687" inkscape:window-height="837" id="namedview10" showgrid="false" inkscape:zoom="3.3499779" inkscape:cx="-41.386534" inkscape:cy="40.529369" inkscape:window-x="67" inkscape:window-y="27" inkscape:window-maximized="0" inkscape:current-layer="svg8"/>
	<g style="fill:#cb2e62;fill-rule:nonzero" id="g6" transform="matrix(1.2336554,0,0,1.2336554,6.8227425,14.338759)">
		<path d="M 18.0,20.6 L 24.0,21.5 L 18.0,24.0 L 0.0,18.0 L 18.0,20.6 L 18.0,0.0 L 24.0,2.5 L 24.0,21.5 L 18.0,20.6" style="fill:#cb2e62" id="path2" inkscape:connector-curvature="0"/>
		<path d="M 6.0,4.0 L 8.3,4.5 L 8.3,8.1 L 12.0,5.5 L 12.0,8.5 L 8.2,10.5 L 12.0,12.5 L 12.0,15.5 L 8.2,12.9 L 8.2,16.5 L 6.0,17.0 L 2.0,13.5 L 2.0,12.0 L 4.3,10.5 L 2.0,9.0 L 2.0,7.5 L 6.0,4.0 M 3.2,8.1 L 6.0,9.5 L 6.0,6.0 L 3.2,8.1 M 6.0,15.0 L 6.0,11.5 L 3.2,12.9 L 6.0,15.0 M 12.0,5.5 L 15.0,6.5 L 15.0,14.5 L 12.0,15.5 L 12.0,5.5" style="fill:#cb2e62" id="path4" inkscape:connector-curvature="0"/>
	</g>
	<g aria-label="AppCenter" transform="scale(1.076111,0.92927216)" style="font-style:normal;font-variant:normal;font-weight:bold;font-stretch:normal;font-size:13.32503223px;line-height:1.25;font-family:'Segoe UI';-inkscape-font-specification:'Segoe UI, Bold';font-variant-ligatures:normal;font-variant-caps:normal;font-variant-numeric:normal;font-feature-settings:normal;text-align:start;letter-spacing:0px;word-spacing:0px;writing-mode:lr-tb;text-anchor:start;fill:#cb2e62;fill-opacity:1;stroke:none;stroke-width:0.83281451" id="text823">
		<path d="M 48.61615,34.20193 L 46.32591,34.20193 L 45.66226,32.1264 L 42.34402,32.1264 L 41.68687,34.20193 L 39.40965,34.20193 L 42.80597,24.87181 L 45.2979,24.87181 L 48.61615,34.20193 M 45.18079,30.51283 L 44.17881,27.37676 Q 44.0682,27.02542 44.02266,26.53744 L 43.97061,26.53744 Q 43.93808,26.94734 43.80795,27.35073 L 42.79295,30.51283 L 45.18079,30.51283" style="stroke-width:0.83281451" id="path819"/>
		<path d="M 51.66113,33.42768 L 51.6351,33.42768 L 51.6351,37.26643 L 49.57909,37.26643 L 49.57909,27.53942 L 51.6351,27.53942 L 51.6351,28.5414 L 51.66113,28.5414 Q 52.42237,27.37676 53.80172,27.37676 Q 55.09649,27.37676 55.79917,28.26813 Q 56.50837,29.153 56.50837,30.68199 Q 56.50837,32.34762 55.68206,33.35611 Q 54.86226,34.36459 53.49592,34.36459 Q 52.29225,34.36459 51.66113,33.42768 M 51.60257,30.69501 L 51.60257,31.22853 Q 51.60257,31.9182 51.96692,32.35413 Q 52.33128,32.79005 52.92336,32.79005 Q 53.62605,32.79005 54.00992,32.25003 Q 54.4003,31.70349 54.4003,30.70802 Q 54.4003,28.9513 53.03397,28.9513 Q 52.40285,28.9513 51.99946,29.43277 Q 51.60257,29.90774 51.60257,30.69501 L 51.60257,30.69501" style="stroke-width:0.83281451" id="path821"/>
		<path d="M 59.93722,33.42768 L 59.9112,33.42768 L 59.9112,37.26643 L 57.85519,37.26643 L 57.85519,27.53942 L 59.9112,27.53942 L 59.9112,28.5414 L 59.93722,28.5414 Q 60.69847,27.37676 62.07782,27.37676 Q 63.37258,27.37676 64.07527,28.26813 Q 64.78446,29.153 64.78446,30.68199 Q 64.78446,32.34762 63.95815,33.35611 Q 63.13835,34.36459 61.77202,34.36459 Q 60.56834,34.36459 59.93722,33.42768 L 59.93722,33.42768 M 59.87866,30.69501 L 59.87866,31.22853 Q 59.87866,31.9182 60.24302,32.35413 Q 60.60737,32.79005 61.19945,32.79005 Q 61.90214,32.79005 62.28602,32.25003 Q 62.6764,31.70349 62.6764,30.70802 Q 62.6764,28.9513 61.31006,28.9513 Q 60.67894,28.9513 60.27555,29.43277 Q 59.87866000000006,29.90774 59.87866000000006,30.69501 L 59.87866,30.69501" style="stroke-width:0.83281451" id="path823"/>
		<path d="M 73.02152,33.87011 Q 72.00002,34.36459 70.35391,34.36459 Q 68.20681,34.36459 66.97711,33.10236 Q 65.74741,31.84013 65.74741,29.73857 Q 65.74741,27.50038 67.12675,26.10802 Q 68.51261,24.71566 70.71827,24.71566 Q 72.0846,24.71566 73.0215200000001,25.06049 L 73.0215200000001,27.08397 Q 72.0846,26.52443 70.88743,26.52443 Q 69.57315,26.52443 68.76636,27.35073 Q 67.95957,28.17704 67.95957,29.58892 Q 67.95957,30.94225 68.72081,31.74904 Q 69.48206,32.54932 70.77032,32.54932 Q 72.00002,32.54932 73.0215200000003,31.95073 L 73.02152,33.87011" style="stroke-width:0.83281451" id="path825"/>
		<path d="M 80.44528,31.45625 L 76.09903,31.45625 Q 76.20313,32.90717 77.92732,32.90717 Q 79.02689,32.90717 79.85971,32.38666 L 79.85971,33.87011 Q 78.9358,34.36459 77.45886,34.36459 Q 75.84528,34.36459 74.95391,33.47322 Q 74.06254,32.57534 74.06254,30.97478 Q 74.06254,29.31566 75.02548,28.34621 Q 75.98842,27.37676 77.39379,27.37676 Q 78.85122,27.37676 79.645,28.24211 Q 80.4452800000001,29.10745 80.4452800000001,30.5909 L 80.44528,31.45625 M 78.53891,30.19402 Q 78.53891,28.76262 77.38078,28.76262 Q 76.8863,28.76262 76.52194,29.17252 Q 76.16409,29.58242 76.08602,30.19402 L 78.53891,30.19402" style="stroke-width:0.83281451" id="path827"/>
		<path d="M 88.10327,34.20193 L 86.05377,34.20193 L 86.05377,30.49981 Q 86.05377,28.9513 84.94769,28.9513 Q 84.41416,28.9513 84.06933,29.3612 Q 83.72449,29.7711 83.72449,30.40222 L 83.72449,34.20193 L 81.66848,34.20193 L 81.66848,27.53942 L 83.72449,27.53942 L 83.72449,28.59345 L 83.75052,28.59345 Q 84.48574,27.37676 85.89111,27.37676 Q 88.10328,27.37676 88.10328,30.12244 L 88.10327,34.20193" style="stroke-width:0.83281451" id="path829"/>
		<path d="M 93.76381,34.12386 Q 93.30836,34.36459 92.39096,34.36459 Q 90.21784,34.36459 90.21784,32.10689 L 90.21784,29.0554 L 89.13778,29.0554 L 89.13778,27.53942 L 90.21784,27.53942 L 90.21784,26.10151 L 92.26734,25.51594 L 92.26734,27.53942 L 93.76381,27.53942 L 93.76381,29.0554 L 92.26734,29.0554 L 92.26734,31.74904 Q 92.26734,32.79005 93.09365,32.79005 Q 93.41897,32.79005 93.76381,32.60137 L 93.76381,34.12386" style="stroke-width:0.83281451" id="path831"/>
		<path d="M 100.90129,31.45625 L 96.55504,31.45625 Q 96.65914,32.90717 98.38332,32.90717 Q 99.4829,32.90717 100.31571,32.38666 L 100.31571,33.87011 Q 99.39181,34.36459 97.91487,34.36459 Q 96.30129,34.36459 95.40992,33.47322 Q 94.51855,32.57534 94.51855,30.97478 Q 94.51855,29.31566 95.48149,28.34621 Q 96.44443,27.37676 97.8498,27.37676 Q 99.30723,27.37676 100.101,28.24211 Q 100.90129,29.10745 100.90129,30.5909 L 100.90129,31.45625 M 98.99492,30.19402 Q 98.99492,28.76262 97.83679,28.76262 Q 97.34231,28.76262 96.97795,29.17252 Q 96.6201,29.58242 96.54202,30.19402 L 98.99492,30.19402" style="stroke-width:0.83281451" id="path833"/>
		<path d="M 106.47073,29.39373 Q 106.09987,29.19204 105.60539,29.19204 Q 104.93523,29.19204 104.55786,29.68652 Q 104.18049,30.1745 104.18049,31.02032 L 104.18049,34.20193 L 102.12448,34.20193 L 102.12448,27.53942 L 104.18049,27.53942 L 104.18049,28.77563 L 104.20649,28.77563 Q 104.69447,27.4223 105.96321,27.4223 Q 106.28853,27.4223 106.4707,27.50038 L 106.47073,29.39373" style="stroke-width:0.83281451" id="path835"/>
	</g>
</svg>

<?xml version="1.0" encoding="UTF-8" standalone="no"?>
<svg
   xmlns:dc="http://purl.org/dc/elements/1.1/"
   xmlns:cc="http://creativecommons.org/ns#"
   xmlns:rdf="http://www.w3.org/1999/02/22-rdf-syntax-ns#"
   xmlns:svg="http://www.w3.org/2000/svg"
   xmlns="http://www.w3.org/2000/svg"
   xmlns:sodipodi="http://sodipodi.sourceforge.net/DTD/sodipodi-0.dtd"
   xmlns:inkscape="http://www.inkscape.org/namespaces/inkscape"
   alt="App Center"
   width="512"
   height="512"
   viewBox="0 0 512 512"
   version="1.1"
   id="svg36"
   sodipodi:docname="appcenterms-tile.svg"
   inkscape:version="0.92.3 (2405546, 2018-03-11)">
  <metadata
     id="metadata42">
    <rdf:RDF>
      <cc:Work
         rdf:about="">
        <dc:format>image/svg+xml</dc:format>
        <dc:type
           rdf:resource="http://purl.org/dc/dcmitype/StillImage" />
        <dc:title></dc:title>
      </cc:Work>
    </rdf:RDF>
  </metadata>
  <defs
     id="defs40" />
  <sodipodi:namedview
     pagecolor="#ffffff"
     bordercolor="#666666"
     borderopacity="1"
     objecttolerance="10"
     gridtolerance="10"
     guidetolerance="10"
     inkscape:pageopacity="0"
     inkscape:pageshadow="2"
     inkscape:window-width="1806"
     inkscape:window-height="987"
     id="namedview38"
     showgrid="false"
     inkscape:zoom="0.55726091"
     inkscape:cx="256"
     inkscape:cy="256"
     inkscape:window-x="67"
     inkscape:window-y="27"
     inkscape:window-maximized="0"
     inkscape:current-layer="svg36" />
  <rect
     style="fill:#cb2e62;fill-opacity:1"
     id="rect1935"
     width="512"
     height="512"
     x="0"
     y="0"
     rx="75"
     ry="75" />
  <g
     style="fill:#ffffff;fill-rule:nonzero"
     id="g34"
     transform="matrix(13.333333,0,0,13.333333,96,96.000008)">
    <path
       d="M 18,20.6 24,21.5 18,24 0,18 18,20.6 V 0 l 6,2.5 v 19 z"
       style="fill:#ffffff"
       id="path30"
       inkscape:connector-curvature="0" />
    <path
       d="M 6,4 8.3,4.5 V 8.1 L 12,5.5 v 3 l -3.8,2 3.8,2 v 3 L 8.2,12.9 v 3.6 L 6,17 2,13.5 V 12 L 4.3,10.5 2,9 V 7.5 Z M 3.2,8.1 6,9.5 V 6 Z M 6,15 v -3.5 l -2.8,1.4 z m 6,-9.5 3,1 v 8 l -3,1 z"
       style="fill:#ffffff"
       id="path32"
       inkscape:connector-curvature="0" />
  </g>
</svg>
